hardware/coupleur-5p/fab/coupleur-5p-B_Paste.svg

<?xml version="1.0" encoding="UTF-8" standalone="no"?>
<svg
   version="1.1"
   width="29.700220cm"
   height="21.000720cm"
   viewBox="0 0 116930 82680"
   id="svg1119"
   sodipodi:docname="coupleur-5p-B_Paste.svg"
   inkscape:version="1.1.1 (3bf5ae0d25, 2021-09-20)"
   xmlns:inkscape="http://www.inkscape.org/namespaces/inkscape"
   xmlns:sodipodi="http://sodipodi.sourceforge.net/DTD/sodipodi-0.dtd"
   xmlns="http://www.w3.org/2000/svg"
   xmlns:svg="http://www.w3.org/2000/svg">
  <defs
     id="defs1123" />
  <sodipodi:namedview
     id="namedview1121"
     pagecolor="#ffffff"
     bordercolor="#666666"
     borderopacity="1.0"
     inkscape:pageshadow="2"
     inkscape:pageopacity="0.0"
     inkscape:pagecheckerboard="0"
     inkscape:document-units="cm"
     showgrid="false"
     inkscape:zoom="1.882171"
     inkscape:cx="574.33676"
     inkscape:cy="321.17167"
     inkscape:window-width="1461"
     inkscape:window-height="1080"
     inkscape:window-x="329"
     inkscape:window-y="-39"
     inkscape:window-maximized="0"
     inkscape:current-layer="svg1119" />
  <title
     id="title1047">SVG Picture created as coupleur-5p-B_Paste.svg date 2022/04/01 14:43:58 </title>
  <desc
     id="desc1049">Picture generated by PCBNEW </desc>
  <g
     style="fill:#000000; fill-opacity:1;stroke:#000000; stroke-opacity:1; stroke-linecap:round; stroke-linejoin:round;"
     transform="translate(0 0) scale(1 1)"
     id="g1051" />
  <g
     style="fill:#000000; fill-opacity:0.0;  stroke:#000000; stroke-width:-0.000393701; stroke-opacity:1;  stroke-linecap:round; stroke-linejoin:round;"
     id="g1053" />
  <path
     d="M 83465,25590 H 36221"
     id="path1055"
     style="fill:none;fill-opacity:0;stroke:#ff0000;stroke-width:19.6850404;stroke-linecap:round;stroke-linejoin:round;stroke-opacity:1;stroke-miterlimit:4;stroke-dasharray:none" />
  <path
     d="M 83465,41338 V 25590"
     id="path1057"
     style="fill:none;fill-opacity:0;stroke:#ff0000;stroke-width:19.6850404;stroke-linecap:round;stroke-linejoin:round;stroke-opacity:1;stroke-miterlimit:4;stroke-dasharray:none" />
  <path
     d="M 36221,41338 H 83465"
     id="path1059"
     style="fill:none;fill-opacity:0;stroke:#ff0000;stroke-width:19.6850404;stroke-linecap:round;stroke-linejoin:round;stroke-opacity:1;stroke-miterlimit:4;stroke-dasharray:none" />
  <path
     d="M 36221,25590 V 41338"
     id="path1061"
     style="fill:none;fill-opacity:0;stroke:#ff0000;stroke-width:19.6850404;stroke-linecap:round;stroke-linejoin:round;stroke-opacity:1;stroke-miterlimit:4;stroke-dasharray:none" />
  <path
     d="M 38189,27559 V 39370"
     id="path1063"
     style="fill:none;fill-opacity:0;stroke:#ffff00;stroke-width:19.685;stroke-linecap:round;stroke-linejoin:round;stroke-opacity:1" />
  <path
     d="M 81496,27559 H 38189"
     id="path1065"
     style="fill:none;fill-opacity:0;stroke:#ffff00;stroke-width:19.685;stroke-linecap:round;stroke-linejoin:round;stroke-opacity:1" />
  <path
     d="M 81496,39370 V 27559"
     id="path1067"
     style="fill:none;fill-opacity:0;stroke:#ffff00;stroke-width:19.685;stroke-linecap:round;stroke-linejoin:round;stroke-opacity:1" />
  <path
     d="M 38189,39370 H 81496"
     id="path1069"
     style="fill:none;fill-opacity:0;stroke:#ffff00;stroke-width:19.685;stroke-linecap:round;stroke-linejoin:round;stroke-opacity:1" />
  <g
     id="g1071"
     style="fill:#000000;fill-opacity:0;stroke:#000000;stroke-width:19.685;stroke-linecap:round;stroke-linejoin:round;stroke-opacity:1" />
  <g
     id="g1073"
     style="fill:#000000;fill-opacity:0;stroke:#000000;stroke-width:19.685;stroke-linecap:round;stroke-linejoin:round;stroke-opacity:1" />
  <g
     id="g1075"
     style="fill:#000000;fill-opacity:0;stroke:#000000;stroke-width:19.685;stroke-linecap:round;stroke-linejoin:round;stroke-opacity:1" />
  <g
     id="g1077"
     style="fill:#000000;fill-opacity:0;stroke:#000000;stroke-width:19.685;stroke-linecap:round;stroke-linejoin:round;stroke-opacity:1" />
  <g
     id="g1079"
     style="fill:#000000;fill-opacity:0;stroke:#000000;stroke-width:19.685;stroke-linecap:round;stroke-linejoin:round;stroke-opacity:1" />
  <g
     id="g1081"
     style="fill:#000000;fill-opacity:0;stroke:#000000;stroke-width:19.685;stroke-linecap:round;stroke-linejoin:round;stroke-opacity:1" />
  <g
     style="fill:#000000;fill-opacity:0;stroke:#000000;stroke-width:19.685;stroke-linecap:round;stroke-linejoin:round;stroke-opacity:1"
     id="g1083" />
  <g
     style="fill:#000000;fill-opacity:0;stroke:#000000;stroke-width:0;stroke-linecap:round;stroke-linejoin:round;stroke-opacity:1"
     id="g1085" />
  <g
     style="fill:#00ff00;stroke:none;stroke-width:0;stroke-linecap:round;stroke-linejoin:round;fill-opacity:1"
     id="g1091">
    <g
       id="path1087"
       style="fill:#00ff00;fill-opacity:1;stroke:none">
      <path
         style="color:#000000;fill-rule:evenodd;stroke:none;-inkscape-stroke:none;fill:#00ff00;fill-opacity:1"
         d="m 42727.4,33228.8 -9.5,1.4 -9.4,2.4 -9.1,3.2 -8.7,4.2 -8.3,4.9 -7.8,5.8 -7.1,6.5 -6.5,7.1 -5.8,7.8 -4.9,8.3 -4.1,8.7 -3.3,9.1 -2.3,9.4 -1.5,9.5 -0.4,9.7 v 275.6 l 0.4,9.6 1.5,9.6 2.3,9.3 3.3,9.1 4.1,8.8 4.9,8.2 5.8,7.8 6.5,7.2 7.1,6.4 7.8,5.8 8.3,5 8.7,4.1 9.1,3.2 9.4,2.4 9.5,1.4 9.7,0.5 h 354.3 l 9.7,-0.5 9.5,-1.4 9.4,-2.4 9.1,-3.2 8.7,-4.1 8.3,-5 7.8,-5.8 7.1,-6.4 6.5,-7.2 5.8,-7.8 4.9,-8.2 4.2,-8.8 3.2,-9.1 2.4,-9.3 1.4,-9.6 0.4,-9.6 v -275.6 l -0.4,-9.7 -1.4,-9.5 -2.4,-9.4 -3.2,-9.1 -4.2,-8.7 -4.9,-8.3 -5.8,-7.8 -6.5,-7.1 -7.1,-6.5 -7.8,-5.8 -8.3,-4.9 -8.7,-4.2 -9.1,-3.2 -9.4,-2.4 -9.5,-1.4 -9.7,-0.5 h -354.3 z"
         id="path2955" />
      <path
         style="color:#000000;fill-rule:evenodd;stroke:none;-inkscape-stroke:none;fill:#00ff00;fill-opacity:1"
         d="m 42727.4,33228.8 -9.5,1.4 -9.4,2.4 -9.1,3.2 -8.7,4.2 -8.3,4.9 -7.8,5.8 -7.1,6.5 -6.5,7.1 -5.8,7.8 -4.9,8.3 -4.1,8.7 -3.3,9.1 -2.3,9.4 -1.5,9.5 -0.4,9.7 v 275.6 l 0.4,9.6 1.5,9.6 2.3,9.3 3.3,9.1 4.1,8.8 4.9,8.2 5.8,7.8 6.5,7.2 7.1,6.4 7.8,5.8 8.3,5 8.7,4.1 9.1,3.2 9.4,2.4 9.5,1.4 9.7,0.5 h 354.3 l 9.7,-0.5 9.5,-1.4 9.4,-2.4 9.1,-3.2 8.7,-4.1 8.3,-5 7.8,-5.8 7.1,-6.4 6.5,-7.2 5.8,-7.8 4.9,-8.2 4.2,-8.8 3.2,-9.1 2.4,-9.3 1.4,-9.6 0.4,-9.6 v -275.6 l -0.4,-9.7 -1.4,-9.5 -2.4,-9.4 -3.2,-9.1 -4.2,-8.7 -4.9,-8.3 -5.8,-7.8 -6.5,-7.1 -7.1,-6.5 -7.8,-5.8 -8.3,-4.9 -8.7,-4.2 -9.1,-3.2 -9.4,-2.4 -9.5,-1.4 -9.7,-0.5 h -354.3 z"
         id="path2957" />
    </g>
    <g
       id="path1089"
       style="fill:#00ff00;fill-opacity:1;stroke:none">
      <path
         style="color:#000000;fill-rule:evenodd;stroke:none;-inkscape-stroke:none;fill:#00ff00;fill-opacity:1"
         d="m 42727.4,32441.4 -9.5,1.4 -9.4,2.4 -9.1,3.2 -8.7,4.2 -8.3,4.9 -7.8,5.8 -7.1,6.5 -6.5,7.1 -5.8,7.8 -4.9,8.3 -4.1,8.7 -3.3,9.1 -2.3,9.4 -1.5,9.5 -0.4,9.7 v 275.6 l 0.4,9.6 1.5,9.6 2.3,9.3 3.3,9.1 4.1,8.8 4.9,8.2 5.8,7.8 6.5,7.2 7.1,6.4 7.8,5.8 8.3,5 8.7,4.1 9.1,3.2 9.4,2.4 9.5,1.4 9.7,0.5 h 354.3 l 9.7,-0.5 9.5,-1.4 9.4,-2.4 9.1,-3.2 8.7,-4.1 8.3,-5 7.8,-5.8 7.1,-6.4 6.5,-7.2 5.8,-7.8 4.9,-8.2 4.2,-8.8 3.2,-9.1 2.4,-9.3 1.4,-9.6 0.4,-9.6 v -275.6 l -0.4,-9.7 -1.4,-9.5 -2.4,-9.4 -3.2,-9.1 -4.2,-8.7 -4.9,-8.3 -5.8,-7.8 -6.5,-7.1 -7.1,-6.5 -7.8,-5.8 -8.3,-4.9 -8.7,-4.2 -9.1,-3.2 -9.4,-2.4 -9.5,-1.4 -9.7,-0.5 h -354.3 z"
         id="path2961" />
      <path
         style="color:#000000;fill-rule:evenodd;stroke:none;-inkscape-stroke:none;fill:#00ff00;fill-opacity:1"
         d="m 42727.4,32441.4 -9.5,1.4 -9.4,2.4 -9.1,3.2 -8.7,4.2 -8.3,4.9 -7.8,5.8 -7.1,6.5 -6.5,7.1 -5.8,7.8 -4.9,8.3 -4.1,8.7 -3.3,9.1 -2.3,9.4 -1.5,9.5 -0.4,9.7 v 275.6 l 0.4,9.6 1.5,9.6 2.3,9.3 3.3,9.1 4.1,8.8 4.9,8.2 5.8,7.8 6.5,7.2 7.1,6.4 7.8,5.8 8.3,5 8.7,4.1 9.1,3.2 9.4,2.4 9.5,1.4 9.7,0.5 h 354.3 l 9.7,-0.5 9.5,-1.4 9.4,-2.4 9.1,-3.2 8.7,-4.1 8.3,-5 7.8,-5.8 7.1,-6.4 6.5,-7.2 5.8,-7.8 4.9,-8.2 4.2,-8.8 3.2,-9.1 2.4,-9.3 1.4,-9.6 0.4,-9.6 v -275.6 l -0.4,-9.7 -1.4,-9.5 -2.4,-9.4 -3.2,-9.1 -4.2,-8.7 -4.9,-8.3 -5.8,-7.8 -6.5,-7.1 -7.1,-6.5 -7.8,-5.8 -8.3,-4.9 -8.7,-4.2 -9.1,-3.2 -9.4,-2.4 -9.5,-1.4 -9.7,-0.5 h -354.3 z"
         id="path2963" />
    </g>
  </g>
  <g
     id="g1093"
     style="fill:#000000;fill-opacity:0;stroke:#000000;stroke-width:19.685;stroke-linecap:round;stroke-linejoin:round;stroke-opacity:1" />
  <g
     style="fill:#00ff00;stroke:none;stroke-width:0;stroke-linecap:round;stroke-linejoin:round;fill-opacity:1"
     id="g1099">
    <g
       id="path1095"
       style="fill:#00ff00;fill-opacity:1;stroke:none">
      <path
         style="color:#000000;fill-rule:evenodd;stroke:none;-inkscape-stroke:none;fill:#00ff00;fill-opacity:1"
         d="m 70680.2,33228.8 -9.6,1.4 -9.3,2.4 -9.1,3.2 -8.8,4.2 -8.2,4.9 -7.8,5.8 -7.2,6.5 -6.4,7.1 -5.8,7.8 -5,8.3 -4.1,8.7 -3.2,9.1 -2.4,9.4 -1.4,9.5 -0.5,9.7 v 275.6 l 0.5,9.6 1.4,9.6 2.4,9.3 3.2,9.1 4.1,8.8 5,8.2 5.8,7.8 6.4,7.2 7.2,6.4 7.8,5.8 8.2,5 8.8,4.1 9.1,3.2 9.3,2.4 9.6,1.4 9.6,0.5 h 354.4 l 9.6,-0.5 9.6,-1.4 9.3,-2.4 9.1,-3.2 8.8,-4.1 8.3,-5 7.7,-5.8 7.2,-6.4 6.5,-7.2 5.7,-7.8 5,-8.2 4.1,-8.8 3.3,-9.1 2.3,-9.3 1.4,-9.6 0.5,-9.6 v -275.6 l -0.5,-9.7 -1.4,-9.5 -2.3,-9.4 -3.3,-9.1 -4.1,-8.7 -5,-8.3 -5.7,-7.8 -6.5,-7.1 -7.2,-6.5 -7.7,-5.8 -8.3,-4.9 -8.8,-4.2 -9.1,-3.2 -9.3,-2.4 -9.6,-1.4 -9.6,-0.5 h -354.4 z"
         id="path2967" />
      <path
         style="color:#000000;fill-rule:evenodd;stroke:none;-inkscape-stroke:none;fill:#00ff00;fill-opacity:1"
         d="m 70680.2,33228.8 -9.6,1.4 -9.3,2.4 -9.1,3.2 -8.8,4.2 -8.2,4.9 -7.8,5.8 -7.2,6.5 -6.4,7.1 -5.8,7.8 -5,8.3 -4.1,8.7 -3.2,9.1 -2.4,9.4 -1.4,9.5 -0.5,9.7 v 275.6 l 0.5,9.6 1.4,9.6 2.4,9.3 3.2,9.1 4.1,8.8 5,8.2 5.8,7.8 6.4,7.2 7.2,6.4 7.8,5.8 8.2,5 8.8,4.1 9.1,3.2 9.3,2.4 9.6,1.4 9.6,0.5 h 354.4 l 9.6,-0.5 9.6,-1.4 9.3,-2.4 9.1,-3.2 8.8,-4.1 8.3,-5 7.7,-5.8 7.2,-6.4 6.5,-7.2 5.7,-7.8 5,-8.2 4.1,-8.8 3.3,-9.1 2.3,-9.3 1.4,-9.6 0.5,-9.6 v -275.6 l -0.5,-9.7 -1.4,-9.5 -2.3,-9.4 -3.3,-9.1 -4.1,-8.7 -5,-8.3 -5.7,-7.8 -6.5,-7.1 -7.2,-6.5 -7.7,-5.8 -8.3,-4.9 -8.8,-4.2 -9.1,-3.2 -9.3,-2.4 -9.6,-1.4 -9.6,-0.5 h -354.4 z"
         id="path2969" />
    </g>
    <g
       id="path1097"
       style="fill:#00ff00;fill-opacity:1;stroke:none">
      <path
         style="color:#000000;fill-rule:evenodd;stroke:none;-inkscape-stroke:none;fill:#00ff00;fill-opacity:1"
         d="m 70680.2,32441.4 -9.6,1.4 -9.3,2.4 -9.1,3.2 -8.8,4.2 -8.2,4.9 -7.8,5.8 -7.2,6.5 -6.4,7.1 -5.8,7.8 -5,8.3 -4.1,8.7 -3.2,9.1 -2.4,9.4 -1.4,9.5 -0.5,9.7 v 275.6 l 0.5,9.6 1.4,9.6 2.4,9.3 3.2,9.1 4.1,8.8 5,8.2 5.8,7.8 6.4,7.2 7.2,6.4 7.8,5.8 8.2,5 8.8,4.1 9.1,3.2 9.3,2.4 9.6,1.4 9.6,0.5 h 354.4 l 9.6,-0.5 9.6,-1.4 9.3,-2.4 9.1,-3.2 8.8,-4.1 8.3,-5 7.7,-5.8 7.2,-6.4 6.5,-7.2 5.7,-7.8 5,-8.2 4.1,-8.8 3.3,-9.1 2.3,-9.3 1.4,-9.6 0.5,-9.6 v -275.6 l -0.5,-9.7 -1.4,-9.5 -2.3,-9.4 -3.3,-9.1 -4.1,-8.7 -5,-8.3 -5.7,-7.8 -6.5,-7.1 -7.2,-6.5 -7.7,-5.8 -8.3,-4.9 -8.8,-4.2 -9.1,-3.2 -9.3,-2.4 -9.6,-1.4 -9.6,-0.5 h -354.4 z"
         id="path2973" />
      <path
         style="color:#000000;fill-rule:evenodd;stroke:none;-inkscape-stroke:none;fill:#00ff00;fill-opacity:1"
         d="m 70680.2,32441.4 -9.6,1.4 -9.3,2.4 -9.1,3.2 -8.8,4.2 -8.2,4.9 -7.8,5.8 -7.2,6.5 -6.4,7.1 -5.8,7.8 -5,8.3 -4.1,8.7 -3.2,9.1 -2.4,9.4 -1.4,9.5 -0.5,9.7 v 275.6 l 0.5,9.6 1.4,9.6 2.4,9.3 3.2,9.1 4.1,8.8 5,8.2 5.8,7.8 6.4,7.2 7.2,6.4 7.8,5.8 8.2,5 8.8,4.1 9.1,3.2 9.3,2.4 9.6,1.4 9.6,0.5 h 354.4 l 9.6,-0.5 9.6,-1.4 9.3,-2.4 9.1,-3.2 8.8,-4.1 8.3,-5 7.7,-5.8 7.2,-6.4 6.5,-7.2 5.7,-7.8 5,-8.2 4.1,-8.8 3.3,-9.1 2.3,-9.3 1.4,-9.6 0.5,-9.6 v -275.6 l -0.5,-9.7 -1.4,-9.5 -2.3,-9.4 -3.3,-9.1 -4.1,-8.7 -5,-8.3 -5.7,-7.8 -6.5,-7.1 -7.2,-6.5 -7.7,-5.8 -8.3,-4.9 -8.8,-4.2 -9.1,-3.2 -9.3,-2.4 -9.6,-1.4 -9.6,-0.5 h -354.4 z"
         id="path2975" />
    </g>
  </g>
  <g
     id="g1101"
     style="fill:#000000;fill-opacity:0;stroke:#000000;stroke-width:19.685;stroke-linecap:round;stroke-linejoin:round;stroke-opacity:1" />
  <g
     id="g1103"
     style="fill:#000000;fill-opacity:0;stroke:#000000;stroke-width:19.685;stroke-linecap:round;stroke-linejoin:round;stroke-opacity:1" />
  <g
     id="g1105"
     style="fill:#000000;fill-opacity:0;stroke:#000000;stroke-width:19.685;stroke-linecap:round;stroke-linejoin:round;stroke-opacity:1" />
  <g
     id="g1107"
     style="fill:#000000;fill-opacity:0;stroke:#000000;stroke-width:19.685;stroke-linecap:round;stroke-linejoin:round;stroke-opacity:1" />
  <g
     id="g1109"
     style="fill:#000000;fill-opacity:0;stroke:#000000;stroke-width:19.685;stroke-linecap:round;stroke-linejoin:round;stroke-opacity:1" />
  <g
     id="g1111"
     style="fill:#000000;fill-opacity:0;stroke:#000000;stroke-width:19.685;stroke-linecap:round;stroke-linejoin:round;stroke-opacity:1" />
  <g
     id="g1113"
     style="fill:#000000;fill-opacity:0;stroke:#000000;stroke-width:19.685;stroke-linecap:round;stroke-linejoin:round;stroke-opacity:1" />
  <g
     id="g1115"
     style="fill:#000000;fill-opacity:0;stroke:#000000;stroke-width:19.685;stroke-linecap:round;stroke-linejoin:round;stroke-opacity:1" />
</svg>

<?xml version="1.0" standalone="no"?>
 <!DOCTYPE svg PUBLIC "-//W3C//DTD SVG 1.1//EN" 
 "http://www.w3.org/Graphics/SVG/1.1/DTD/svg11.dtd"> 
<svg
  xmlns:svg="http://www.w3.org/2000/svg"
  xmlns="http://www.w3.org/2000/svg"
  xmlns:xlink="http://www.w3.org/1999/xlink"
  version="1.1"
  width="29.700220cm" height="21.000720cm" viewBox="0 0 116930 82680">
<title>SVG Picture created as coupleur-5p-B_Paste.svg date 2022/05/02 15:05:40 </title>
  <desc>Picture generated by PCBNEW </desc>
<g style="fill:#000000; fill-opacity:1;stroke:#000000; stroke-opacity:1;
stroke-linecap:round; stroke-linejoin:round;"
 transform="translate(0 0) scale(1 1)">
</g>
<g style="fill:#000000; fill-opacity:0.0; 
stroke:#000000; stroke-width:-0.000393701; stroke-opacity:1; 
stroke-linecap:round; stroke-linejoin:round;">
</g>
<g style="fill:#000000; fill-opacity:0.0; 
stroke:#000000; stroke-width:19.685; stroke-opacity:1; 
stroke-linecap:round; stroke-linejoin:round;">
<path d="M83465 25590
L36221 25590
" />
<path d="M83465 41338
L83465 25590
" />
<path d="M36221 41338
L83465 41338
" />
<path d="M36221 25590
L36221 41338
" />
<path d="M38189 27559
L38189 39370
" />
<path d="M81496 27559
L38189 27559
" />
<path d="M81496 39370
L81496 27559
" />
<path d="M38189 39370
L81496 39370
" />
<g >
</g>
<g >
</g>
<g >
</g>
<g >
</g>
<g >
</g>
<g >
</g>
<g style="fill:#000000; fill-opacity:0.0; 
stroke:#000000; stroke-width:19.685; stroke-opacity:1; 
stroke-linecap:round; stroke-linejoin:round;">
</g>
<g style="fill:#000000; fill-opacity:0.0; 
stroke:#000000; stroke-width:0; stroke-opacity:1; 
stroke-linecap:round; stroke-linejoin:round;">
</g>
<g style="fill:#000000; fill-opacity:1.0; 
stroke:#000000; stroke-width:0; stroke-opacity:1; 
stroke-linecap:round; stroke-linejoin:round;">
<path style="fill:#000000; fill-opacity:1.0; 
stroke:#000000; stroke-width:0; stroke-opacity:1; 
stroke-linecap:round; stroke-linejoin:round;fill-rule:evenodd;"
d="M 42727.4,33228.8
42717.9,33230.2
42708.5,33232.6
42699.4,33235.8
42690.7,33240
42682.4,33244.9
42674.6,33250.7
42667.5,33257.2
42661,33264.3
42655.2,33272.1
42650.3,33280.4
42646.2,33289.1
42642.9,33298.2
42640.6,33307.6
42639.1,33317.1
42638.7,33326.8
42638.7,33602.4
42639.1,33612
42640.6,33621.6
42642.9,33630.9
42646.2,33640
42650.3,33648.8
42655.2,33657
42661,33664.8
42667.5,33672
42674.6,33678.4
42682.4,33684.2
42690.7,33689.2
42699.4,33693.3
42708.5,33696.5
42717.9,33698.9
42727.4,33700.3
42737.1,33700.8
43091.4,33700.8
43101.1,33700.3
43110.6,33698.9
43120,33696.5
43129.1,33693.3
43137.8,33689.2
43146.1,33684.2
43153.9,33678.4
43161,33672
43167.5,33664.8
43173.3,33657
43178.2,33648.8
43182.4,33640
43185.6,33630.9
43188,33621.6
43189.4,33612
43189.8,33602.4
43189.8,33326.8
43189.4,33317.1
43188,33307.6
43185.6,33298.2
43182.4,33289.1
43178.2,33280.4
43173.3,33272.1
43167.5,33264.3
43161,33257.2
43153.9,33250.7
43146.1,33244.9
43137.8,33240
43129.1,33235.8
43120,33232.6
43110.6,33230.2
43101.1,33228.8
43091.4,33228.3
42737.1,33228.3
Z" /> 
<path style="fill:#000000; fill-opacity:1.0; 
stroke:#000000; stroke-width:0; stroke-opacity:1; 
stroke-linecap:round; stroke-linejoin:round;fill-rule:evenodd;"
d="M 42727.4,32441.4
42717.9,32442.8
42708.5,32445.2
42699.4,32448.4
42690.7,32452.6
42682.4,32457.5
42674.6,32463.3
42667.5,32469.8
42661,32476.9
42655.2,32484.7
42650.3,32493
42646.2,32501.7
42642.9,32510.8
42640.6,32520.2
42639.1,32529.7
42638.7,32539.4
42638.7,32815
42639.1,32824.6
42640.6,32834.2
42642.9,32843.5
42646.2,32852.6
42650.3,32861.4
42655.2,32869.6
42661,32877.4
42667.5,32884.6
42674.6,32891
42682.4,32896.8
42690.7,32901.8
42699.4,32905.9
42708.5,32909.1
42717.9,32911.5
42727.4,32912.9
42737.1,32913.4
43091.4,32913.4
43101.1,32912.9
43110.6,32911.5
43120,32909.1
43129.1,32905.9
43137.8,32901.8
43146.1,32896.8
43153.9,32891
43161,32884.6
43167.5,32877.4
43173.3,32869.6
43178.2,32861.4
43182.4,32852.6
43185.6,32843.5
43188,32834.2
43189.4,32824.6
43189.8,32815
43189.8,32539.4
43189.4,32529.7
43188,32520.2
43185.6,32510.8
43182.4,32501.7
43178.2,32493
43173.3,32484.7
43167.5,32476.9
43161,32469.8
43153.9,32463.3
43146.1,32457.5
43137.8,32452.6
43129.1,32448.4
43120,32445.2
43110.6,32442.8
43101.1,32441.4
43091.4,32440.9
42737.1,32440.9
Z" /> 
</g>
<g >
</g>
<g style="fill:#000000; fill-opacity:1.0; 
stroke:#000000; stroke-width:0; stroke-opacity:1; 
stroke-linecap:round; stroke-linejoin:round;">
<path style="fill:#000000; fill-opacity:1.0; 
stroke:#000000; stroke-width:0; stroke-opacity:1; 
stroke-linecap:round; stroke-linejoin:round;fill-rule:evenodd;"
d="M 70680.2,33228.8
70670.6,33230.2
70661.3,33232.6
70652.2,33235.8
70643.4,33240
70635.2,33244.9
70627.4,33250.7
70620.2,33257.2
70613.8,33264.3
70608,33272.1
70603,33280.4
70598.9,33289.1
70595.7,33298.2
70593.3,33307.6
70591.9,33317.1
70591.4,33326.8
70591.4,33602.4
70591.9,33612
70593.3,33621.6
70595.7,33630.9
70598.9,33640
70603,33648.8
70608,33657
70613.8,33664.8
70620.2,33672
70627.4,33678.4
70635.2,33684.2
70643.4,33689.2
70652.2,33693.3
70661.3,33696.5
70670.6,33698.9
70680.2,33700.3
70689.8,33700.8
71044.2,33700.8
71053.8,33700.3
71063.4,33698.9
71072.7,33696.5
71081.8,33693.3
71090.6,33689.2
71098.9,33684.2
71106.6,33678.4
71113.8,33672
71120.3,33664.8
71126,33657
71131,33648.8
71135.1,33640
71138.4,33630.9
71140.7,33621.6
71142.1,33612
71142.6,33602.4
71142.6,33326.8
71142.1,33317.1
71140.7,33307.6
71138.4,33298.2
71135.1,33289.1
71131,33280.4
71126,33272.1
71120.3,33264.3
71113.8,33257.2
71106.6,33250.7
71098.9,33244.9
71090.6,33240
71081.8,33235.8
71072.7,33232.6
71063.4,33230.2
71053.8,33228.8
71044.2,33228.3
70689.8,33228.3
Z" /> 
<path style="fill:#000000; fill-opacity:1.0; 
stroke:#000000; stroke-width:0; stroke-opacity:1; 
stroke-linecap:round; stroke-linejoin:round;fill-rule:evenodd;"
d="M 70680.2,32441.4
70670.6,32442.8
70661.3,32445.2
70652.2,32448.4
70643.4,32452.6
70635.2,32457.5
70627.4,32463.3
70620.2,32469.8
70613.8,32476.9
70608,32484.7
70603,32493
70598.9,32501.7
70595.7,32510.8
70593.3,32520.2
70591.9,32529.7
70591.4,32539.4
70591.4,32815
70591.9,32824.6
70593.3,32834.2
70595.7,32843.5
70598.9,32852.6
70603,32861.4
70608,32869.6
70613.8,32877.4
70620.2,32884.6
70627.4,32891
70635.2,32896.8
70643.4,32901.8
70652.2,32905.9
70661.3,32909.1
70670.6,32911.5
70680.2,32912.9
70689.8,32913.4
71044.2,32913.4
71053.8,32912.9
71063.4,32911.5
71072.7,32909.1
71081.8,32905.9
71090.6,32901.8
71098.9,32896.8
71106.6,32891
71113.8,32884.6
71120.3,32877.4
71126,32869.6
71131,32861.4
71135.1,32852.6
71138.4,32843.5
71140.7,32834.2
71142.1,32824.6
71142.6,32815
71142.6,32539.4
71142.1,32529.7
71140.7,32520.2
71138.4,32510.8
71135.1,32501.7
71131,32493
71126,32484.7
71120.3,32476.9
71113.8,32469.8
71106.6,32463.3
71098.9,32457.5
71090.6,32452.6
71081.8,32448.4
71072.7,32445.2
71063.4,32442.8
71053.8,32441.4
71044.2,32440.9
70689.8,32440.9
Z" /> 
</g>
<g >
</g>
<g >
</g>
<g >
</g>
<g >
</g>
<g >
</g>
<g >
</g>
<g >
</g>
<g >
</g>
</g> 
</svg>
